X: 10672
M: 6/8
L: 1/8
K: D
f2f fed | a2a agf | bag fed | cde A2A |\
f2f fed | a2a agf | egb cde | d2f d2 :|
|: (c/d/) |\
e2e age | d2d dfa | geg fdf | (f3 e2) (f/g/) |\
a2a afa | b2b bd'b | afa gec | d2f d2 :|


